assets/medical-grey/MedicalGrey19.svg

<svg xmlns="http://www.w3.org/2000/svg" id="icons" viewBox="0 0 64 64"><defs><style>.cls-1{fill:none;stroke:#000;stroke-linecap:round;stroke-linejoin:round;stroke-width:2px}</style></defs><g id="microscope"><path d="M55.59 58.95v-6.03H7.96v6.03M25.87 52.92V46.9h11.98v6.02M16.79 41.41a18.72 18.72 0 0026.48-26.48M7.83 41.41h17.92M44.26 5.22l1.32 1.33a4.27 4.27 0 010 6L27.36 30.81 20 23.45 38.22 5.22a4.29 4.29 0 016.04 0z" class="cls-1"/><path d="M21.8 25.25l-3.9 3.91 4.26 4.26 3.9-3.91" class="cls-1"/></g></svg>

<svg xmlns="http://www.w3.org/2000/svg" id="icons" viewBox="0 0 64 64"><defs><style>.cls-1{fill:none;stroke:#000;stroke-linecap:round;stroke-linejoin:round;stroke-width:2px;}</style></defs><g id="microscope"><path d="M55.59 58.95 55.59 52.92 7.96 52.92 7.96 58.95" class="cls-1"/><path d="M25.87 52.92 25.87 46.9 37.85 46.9 37.85 52.92" class="cls-1"/><path d="M16.79 41.41a18.72 18.72 0 0 0 26.48-26.48" class="cls-1"/><path d="M7.83 41.41 25.75 41.41" class="cls-1"/><path d="m44.26 5.22 1.32 1.33a4.27 4.27 0 0 1 0 6L27.36 30.81 20 23.45 38.22 5.22a4.29 4.29 0 0 1 6.04 0z" class="cls-1"/><path d="M21.8 25.25 17.9 29.16 22.16 33.42 26.06 29.51" class="cls-1"/></g></svg>
